X: 1
T: Bittersweet Return
C: Corwin Zekley (2019)
R: waltz
M: 3/4
L: 1/8
K: G
"G" G3 A BG |"D" F2 A4 |"C" ED EF GA |"G" B2 d4 |
"C"ED EF GA |"G" B2 d2 cB |"Am" c3 c Bc |"Dsus" A4 "D"F2 |
"G"G3 A BG |"D" F2 A4 |"C" ED EF GA |"G" B2 d4 |
"C"ED EF GA |"G" BA Bc de |"D" d3 ^c de |"Bm" f3 d ef |
"Em"g3 e ef |"D" e2 d4 |"C" e3 d cB |"G" d4 cd |
"Cm"_e3 d cd |"G" c2 {dc}B2 AG |"C" A3 A GA |"Bm" FD FB df |
"Em"g3 f ef |"D" e2 d3 d |"B7" ^d2 f2 a2 |"Em" g4 ed |
"Am"c3 c Bc |"D" A4 FD |"Cm" _E2 A3 G |"G" G6 ||

